Numix-Light/16/status/indicator-keyboard-Mk-2.svg

<?xml version="1.0" encoding="UTF-8" standalone="no"?>
<svg
   xmlns:dc="http://purl.org/dc/elements/1.1/"
   xmlns:cc="http://creativecommons.org/ns#"
   xmlns:rdf="http://www.w3.org/1999/02/22-rdf-syntax-ns#"
   xmlns:svg="http://www.w3.org/2000/svg"
   xmlns="http://www.w3.org/2000/svg"
   xmlns:sodipodi="http://sodipodi.sourceforge.net/DTD/sodipodi-0.dtd"
   xmlns:inkscape="http://www.inkscape.org/namespaces/inkscape"
   viewBox="0 0 16 16"
   id="svg2"
   version="1.1"
   inkscape:version="0.91 r13725"
   sodipodi:docname="indicator-keyboard-Mk-2.svg">
  <metadata
     id="metadata14">
    <rdf:RDF>
      <cc:Work
         rdf:about="">
        <dc:format>image/svg+xml</dc:format>
        <dc:type
           rdf:resource="http://purl.org/dc/dcmitype/StillImage" />
      </cc:Work>
    </rdf:RDF>
  </metadata>
  <defs
     id="defs12" />
  <sodipodi:namedview
     pagecolor="#ffffff"
     bordercolor="#666666"
     borderopacity="1"
     objecttolerance="10"
     gridtolerance="10"
     guidetolerance="10"
     inkscape:pageopacity="0"
     inkscape:pageshadow="2"
     inkscape:window-width="640"
     inkscape:window-height="480"
     id="namedview10"
     showgrid="false"
     inkscape:zoom="14.75"
     inkscape:cx="8"
     inkscape:cy="8"
     inkscape:window-x="65"
     inkscape:window-y="24"
     inkscape:window-maximized="0"
     inkscape:current-layer="svg2" />
  <path
     style="fill:#353535;fill-opacity:1"
     d="M 1.5996094 0 C 0.71320937 2.9605947e-16 0 0.71320937 0 1.5996094 L 0 14.400391 C 2.9605947e-16 15.286791 0.71320937 16 1.5996094 16 L 14.400391 16 C 15.286791 16 16 15.286791 16 14.400391 L 16 1.5996094 C 16 0.71320937 15.286791 0 14.400391 0 L 1.5996094 0 z M 9.296875 4.1113281 L 9.296875 8.5390625 C 9.446875 8.3950625 9.6147812 8.2309219 9.8007812 8.0449219 C 9.9867813 7.8589219 10.173375 7.6705156 10.359375 7.4785156 C 10.551375 7.2865156 10.730437 7.0999219 10.898438 6.9199219 C 11.066438 6.7399219 11.210078 6.5813594 11.330078 6.4433594 L 12.033203 6.4433594 C 11.895203 6.5873594 11.738453 6.7496875 11.564453 6.9296875 C 11.390453 7.1096875 11.207625 7.2980937 11.015625 7.4960938 C 10.829625 7.6880937 10.643031 7.8765 10.457031 8.0625 L 9.953125 8.5664062 C 10.139125 8.6924063 10.336875 8.8547344 10.546875 9.0527344 C 10.762875 9.2507344 10.973734 9.4671719 11.177734 9.7011719 C 11.387734 9.9291721 11.581719 10.166109 11.761719 10.412109 C 11.947719 10.652109 12.104469 10.879703 12.230469 11.095703 L 11.537109 11.095703 C 11.393109 10.855703 11.228969 10.622531 11.042969 10.394531 C 10.862969 10.160531 10.670797 9.9403283 10.466797 9.7363281 C 10.268797 9.5323281 10.067281 9.3476875 9.8632812 9.1796875 C 9.6652812 9.0116875 9.476875 8.8698594 9.296875 8.7558594 L 9.296875 11.095703 L 8.7109375 11.095703 L 8.7109375 4.2207031 L 9.296875 4.1113281 z M 1.2480469 4.859375 L 1.7890625 4.859375 C 1.9690625 5.159375 2.1612344 5.5063438 2.3652344 5.9023438 C 2.5692344 6.2923438 2.7687969 6.7009531 2.9667969 7.1269531 C 3.1707969 7.5469531 3.3667344 7.9649063 3.5527344 8.3789062 C 3.7447344 8.7869063 3.9126406 9.154375 4.0566406 9.484375 C 4.2006406 9.154375 4.3647812 8.7869063 4.5507812 8.3789062 C 4.7427813 7.9649062 4.9387187 7.5469531 5.1367188 7.1269531 C 5.3407188 6.7009531 5.5440469 6.2923438 5.7480469 5.9023438 C 5.9520469 5.5063438 6.1442188 5.159375 6.3242188 4.859375 L 6.8378906 4.859375 C 6.9398906 5.807375 7.0238437 6.7998906 7.0898438 7.8378906 C 7.1618438 8.8758906 7.2233437 9.9617029 7.2773438 11.095703 L 6.6582031 11.095703 C 6.6222031 10.129703 6.57925 9.2080312 6.53125 8.3320312 C 6.48925 7.4500313 6.4295625 6.6347656 6.3515625 5.8847656 C 6.3035625 5.9687656 6.2289531 6.1124063 6.1269531 6.3164062 C 6.0249531 6.5204063 5.9073906 6.7573437 5.7753906 7.0273438 C 5.6433906 7.2973438 5.5053281 7.5883906 5.3613281 7.9003906 C 5.2173281 8.2063906 5.0755 8.5067812 4.9375 8.8007812 C 4.7995 9.0887812 4.6745469 9.3555625 4.5605469 9.6015625 C 4.4525469 9.8475625 4.3685937 10.045312 4.3085938 10.195312 L 3.7597656 10.195312 C 3.6997656 10.045312 3.6120469 9.8475625 3.4980469 9.6015625 C 3.3900469 9.3555625 3.2669063 9.0887813 3.1289062 8.8007812 C 2.9909062 8.5067812 2.8510313 8.2063906 2.7070312 7.9003906 C 2.5630312 7.5883906 2.4249688 7.2973438 2.2929688 7.0273438 C 2.1609687 6.7573437 2.0434063 6.5204063 1.9414062 6.3164062 C 1.8394063 6.1124063 1.7647969 5.9687656 1.7167969 5.8847656 C 1.6387969 6.6347656 1.5753438 7.4500312 1.5273438 8.3320312 C 1.4853437 9.2080313 1.4461563 10.129703 1.4101562 11.095703 L 0.80664062 11.095703 C 0.86064062 9.9617029 0.92228125 8.8758906 0.98828125 7.8378906 C 1.0602813 6.7998906 1.1460469 5.807375 1.2480469 4.859375 z M 13.865234 8.7539062 C 14.259134 8.7539062 14.555006 8.851875 14.753906 9.046875 C 14.952806 9.237975 15.052734 9.5044563 15.052734 9.8476562 C 15.052734 9.9997563 15.025303 10.14475 14.970703 10.28125 C 14.916103 10.41385 14.841647 10.543169 14.748047 10.667969 C 14.658347 10.792769 14.5545 10.912297 14.4375 11.029297 C 14.3205 11.146297 14.202931 11.263859 14.082031 11.380859 C 13.980631 11.478359 13.880703 11.578288 13.783203 11.679688 C 13.689603 11.777188 13.603391 11.877116 13.525391 11.978516 C 13.451291 12.076016 13.39055 12.172031 13.34375 12.269531 C 13.30085 12.363131 13.279297 12.457181 13.279297 12.550781 L 13.279297 12.5625 L 15.193359 12.5625 L 15.193359 12.896484 L 12.859375 12.896484 C 12.859375 12.888684 12.857449 12.874969 12.853516 12.855469 L 12.853516 12.755859 C 12.853516 12.572559 12.884872 12.402094 12.951172 12.246094 C 13.017472 12.086194 13.101725 11.937275 13.203125 11.796875 C 13.308425 11.656475 13.424028 11.525197 13.548828 11.404297 C 13.677528 11.283397 13.800969 11.165834 13.917969 11.052734 C 14.015469 10.959134 14.105606 10.869003 14.191406 10.783203 C 14.281106 10.693503 14.359481 10.603366 14.425781 10.509766 C 14.492081 10.416166 14.544984 10.316237 14.583984 10.210938 C 14.622984 10.105638 14.642578 9.9900344 14.642578 9.8652344 C 14.642578 9.5922344 14.568122 9.39825 14.419922 9.28125 C 14.275622 9.16035 14.093394 9.0996094 13.871094 9.0996094 C 13.746294 9.0996094 13.634609 9.1152844 13.537109 9.1464844 C 13.439609 9.1776844 13.353397 9.2149125 13.279297 9.2578125 C 13.209097 9.2968125 13.148356 9.3379594 13.097656 9.3808594 C 13.046956 9.4237594 13.009728 9.4570688 12.986328 9.4804688 L 12.789062 9.2167969 C 12.812463 9.1894969 12.853609 9.1503094 12.912109 9.0996094 C 12.974509 9.0450094 13.048972 8.9921062 13.138672 8.9414062 C 13.232272 8.8907063 13.340038 8.8476 13.460938 8.8125 C 13.581837 8.7735 13.717034 8.7539063 13.865234 8.7539062 z "
     id="path4" />
</svg>

<svg xmlns="http://www.w3.org/2000/svg" viewBox="0 0 16 16">
 <path d="m 1.6 0 c -0.886 0 -1.6 0.713 -1.6 1.6 l 0 12.801 c 0 0.886 0.713 1.6 1.6 1.6 l 12.801 0 c 0.886 0 1.6 -0.713 1.6 -1.6 l 0 -12.801 c 0 -0.886 -0.713 -1.6 -1.6 -1.6 l -12.801 0 z m 7.697 4.111 l 0 4.428 c 0.15 -0.144 0.318 -0.308 0.504 -0.494 c 0.186 -0.186 0.373 -0.374 0.559 -0.566 c 0.192 -0.192 0.371 -0.379 0.539 -0.559 c 0.168 -0.18 0.312 -0.339 0.432 -0.477 l 0.703 0 c -0.138 0.144 -0.295 0.306 -0.469 0.486 c -0.174 0.18 -0.357 0.368 -0.549 0.566 c -0.186 0.192 -0.373 0.38 -0.559 0.566 l -0.504 0.504 c 0.186 0.126 0.384 0.288 0.594 0.486 c 0.216 0.198 0.427 0.414 0.631 0.648 c 0.21 0.228 0.404 0.465 0.584 0.711 c 0.186 0.24 0.343 0.468 0.469 0.684 l -0.693 0 c -0.144 -0.24 -0.308 -0.473 -0.494 -0.701 c -0.18 -0.234 -0.372 -0.454 -0.576 -0.658 c -0.198 -0.204 -0.4 -0.389 -0.604 -0.557 c -0.198 -0.168 -0.386 -0.31 -0.566 -0.424 l 0 2.34 l -0.586 0 l 0 -6.875 l 0.586 -0.109 z m -8.05 0.748 l 0.541 0 c 0.18 0.3 0.372 0.647 0.576 1.043 c 0.204 0.39 0.404 0.799 0.602 1.225 c 0.204 0.42 0.4 0.838 0.586 1.252 c 0.192 0.408 0.36 0.775 0.504 1.105 c 0.144 -0.33 0.308 -0.697 0.494 -1.105 c 0.192 -0.414 0.388 -0.832 0.586 -1.252 c 0.204 -0.426 0.407 -0.835 0.611 -1.225 c 0.204 -0.396 0.396 -0.743 0.576 -1.043 l 0.514 0 c 0.102 0.948 0.186 1.941 0.252 2.979 c 0.072 1.038 0.133 2.124 0.188 3.258 l -0.619 0 c -0.036 -0.966 -0.079 -1.888 -0.127 -2.764 c -0.042 -0.882 -0.102 -1.697 -0.18 -2.447 c -0.048 0.084 -0.123 0.228 -0.225 0.432 c -0.102 0.204 -0.22 0.441 -0.352 0.711 c -0.132 0.27 -0.27 0.561 -0.414 0.873 c -0.144 0.306 -0.286 0.606 -0.424 0.9 c -0.138 0.288 -0.263 0.555 -0.377 0.801 c -0.108 0.246 -0.192 0.444 -0.252 0.594 l -0.549 0 c -0.06 -0.15 -0.148 -0.348 -0.262 -0.594 c -0.108 -0.246 -0.231 -0.513 -0.369 -0.801 c -0.138 -0.294 -0.278 -0.594 -0.422 -0.9 c -0.144 -0.312 -0.282 -0.603 -0.414 -0.873 c -0.132 -0.27 -0.25 -0.507 -0.352 -0.711 c -0.102 -0.204 -0.177 -0.348 -0.225 -0.432 c -0.078 0.75 -0.141 1.565 -0.189 2.447 c -0.042 0.876 -0.081 1.798 -0.117 2.764 l -0.604 0 c 0.054 -1.134 0.116 -2.22 0.182 -3.258 c 0.072 -1.038 0.158 -2.031 0.26 -2.979 z m 12.617 3.895 c 0.394 0 0.69 0.098 0.889 0.293 c 0.199 0.191 0.299 0.458 0.299 0.801 c 0 0.152 -0.027 0.297 -0.082 0.434 c -0.055 0.133 -0.129 0.262 -0.223 0.387 c -0.09 0.125 -0.194 0.244 -0.311 0.361 c -0.117 0.117 -0.235 0.235 -0.355 0.352 c -0.101 0.098 -0.201 0.197 -0.299 0.299 c -0.094 0.098 -0.18 0.197 -0.258 0.299 c -0.074 0.097 -0.135 0.194 -0.182 0.291 c -0.043 0.094 -0.064 0.188 -0.064 0.281 l 0 0.012 l 1.914 0 l 0 0.334 l -2.334 0 c 0 -0.008 -0.002 -0.022 -0.006 -0.041 l 0 -0.1 c 0 -0.183 0.031 -0.354 0.098 -0.51 c 0.066 -0.16 0.151 -0.309 0.252 -0.449 c 0.105 -0.14 0.221 -0.272 0.346 -0.393 c 0.129 -0.121 0.252 -0.238 0.369 -0.352 c 0.098 -0.094 0.188 -0.184 0.273 -0.27 c 0.09 -0.09 0.168 -0.18 0.234 -0.273 c 0.066 -0.094 0.119 -0.194 0.158 -0.299 c 0.039 -0.105 0.059 -0.221 0.059 -0.346 c 0 -0.273 -0.074 -0.467 -0.223 -0.584 c -0.144 -0.121 -0.327 -0.182 -0.549 -0.182 c -0.125 0 -0.236 0.016 -0.334 0.047 c -0.097 0.031 -0.184 0.068 -0.258 0.111 c -0.07 0.039 -0.131 0.08 -0.182 0.123 c -0.051 0.043 -0.088 0.076 -0.111 0.1 l -0.197 -0.264 c 0.023 -0.027 0.065 -0.066 0.123 -0.117 c 0.062 -0.055 0.137 -0.108 0.227 -0.158 c 0.094 -0.051 0.201 -0.094 0.322 -0.129 c 0.121 -0.039 0.256 -0.059 0.404 -0.059 z" style="fill:#353535;fill-opacity:1"/>
</svg>
